; HEADER_BLOCK_START
; generated by Creality_Print V5.1.1.9490 on 2024-07-22 at 21:41:13
; total layer number: 45
; filament_density: 1.24
; filament_diameter: 1.75
; max_z_height: 9.00
; HEADER_BLOCK_END

; MINX = 80.00
; MINY = 80.00
; MINZ = 0.00
; MAXX = 140.00
; MAXY = 140.00
; MAXZ = 9.00

; THUMBNAIL_BLOCK_START

;
; THUMBNAIL_BLOCK_END

; THUMBNAIL_BLOCK_START

;
; THUMBNAIL_BLOCK_END

; external perimeters extrusion width = 0.42mm
; perimeters extrusion width = 0.45mm
; infill extrusion width = 0.45mm
; solid infill extrusion width = 0.42mm
; top infill extrusion width = 0.42mm
; first layer extrusion width = 0.46mm

; EXECUTABLE_BLOCK_START
M73 P0 R19
M201 X5000 Y5000 Z500 E5000
M203 X500 Y500 Z30 E100
M204 P5000 R2500 T5000 ; sets acceleration (P, T) and retract acceleration (R), mm/sec^2
M205 X10.00 Y10.00 Z0.40 E5.00 ; sets the jerk limits, mm/sec
;TYPE:Custom
M220 S100 ;Reset Feedrate 
M221 S100 ;Reset Flowrate 
 
M140 S60 ;Set final bed temp 
G28 ;Home 
 
G92 E0 ;Reset Extruder 
G1 Z2.0 F3000 ;Move Z Axis up 
M104 S220 ;Set final nozzle temp 
G1 X-2.1 Y20 Z0.28 F5000.0 ;Move to start position 
M190 S60 ;Wait for bed temp to stabilize 
M109 S220 ;Wait for nozzle temp to stabilize 
G1 X-2.1 Y145.0 Z0.28 F1500.0 E15 ;Draw the first line 
G1 X-2.4 Y145.0 Z0.28 F5000.0 ;Move to side a little 
M73 P0 R18
G1 X-2.4 Y20 Z0.28 F1500.0 E30 ;Draw the second line 
G92 E0  ;Reset Extruder 
G1 E-1.0000 F1800 ;Retract a bit 
G1 Z2.0 F3000 ;Move Z Axis up 
G1 E0.0000 F1800
G90
G21
M83 ; use relative distances for extrusion
; filament start gcode
M106 S0
;LAYER_CHANGE
;Z:0.2
;HEIGHT:0.2
;BEFORE_LAYER_CHANGE
;0.2
G92 E0

G1 E-1.2 F1800
;_SET_FAN_SPEED_CHANGING_LAYER
M204 P500
M205 X8 Y8
; printing object neopixel_holder.stl id:0 copy 0
M204 T500
G1 Z.4 F9000
G1 X110.124 Y80.654
G1 Z.4
M73 P1 R18
G1 Z.2
G1 E1.2 F1800
;TYPE:Inner wall
;WIDTH:0.459999
G1 X112.878 Y80.789 E.0937
G1 X115.727 Y81.211 E.09789
G1 X118.521 Y81.912 E.09791
G1 X121.233 Y82.883 E.09791
G1 X123.837 Y84.113 E.09787
G1 X126.307 Y85.595 E.0979
G1 X128.621 Y87.311 E.09791
G1 X130.755 Y89.245 E.09789
G1 X132.689 Y91.379 E.09789
G1 X134.405 Y93.693 E.09791
G1 X135.887 Y96.163 E.0979
G1 X137.117 Y98.767 E.09787
G1 X138.088 Y101.479 E.09791
G1 X138.789 Y104.273 E.09791
G1 X139.211 Y107.122 E.09789
G1 X139.352 Y110 E.09791
G1 X139.211 Y112.878 E.09791
G1 X138.789 Y115.727 E.09789
G1 X138.088 Y118.521 E.09791
G1 X137.117 Y121.233 E.09791
G1 X135.887 Y123.837 E.09787
G1 X134.405 Y126.307 E.0979
G1 X132.689 Y128.621 E.09791
G1 X130.755 Y130.755 E.09789
G1 X128.621 Y132.689 E.09789
G1 X126.307 Y134.405 E.09791
G1 X123.837 Y135.887 E.0979
G1 X121.233 Y137.117 E.09787
G1 X118.521 Y138.088 E.09791
G1 X115.727 Y138.789 E.09791
G1 X112.878 Y139.211 E.09789
G1 X110 Y139.352 E.09791
G1 X107.122 Y139.211 E.09792
G1 X104.273 Y138.789 E.09789
G1 X101.479 Y138.088 E.09791
G1 X98.767 Y137.117 E.09791
G1 X96.163 Y135.887 E.09787
G1 X93.693 Y134.405 E.0979
G1 X91.379 Y132.689 E.09791
G1 X89.245 Y130.755 E.09789
G1 X87.311 Y128.621 E.09789
G1 X85.595 Y126.307 E.09791
G1 X84.113 Y123.837 E.0979
G1 X82.883 Y121.233 E.09787
G1 X81.912 Y118.521 E.09791
G1 X81.211 Y115.727 E.09791
G1 X80.789 Y112.878 E.09789
G1 X80.648 Y110 E.09791
G1 X80.789 Y107.122 E.09792
G1 X81.211 Y104.273 E.09789
G1 X81.912 Y101.479 E.09791
G1 X82.883 Y98.767 E.09791
G1 X84.113 Y96.163 E.09787
G1 X85.595 Y93.693 E.0979
G1 X87.311 Y91.379 E.09791
G1 X89.245 Y89.245 E.09789
G1 X91.379 Y87.311 E.09789
G1 X93.693 Y85.595 E.09791
G1 X96.163 Y84.113 E.0979
G1 X98.767 Y82.883 E.09787
G1 X101.479 Y81.912 E.09791
G1 X104.273 Y81.211 E.09791
G1 X107.121 Y80.789 E.09785
G1 X110.084 Y80.653 E.10079
G1 X110.144 Y80.237 F9000
;TYPE:Outer wall
G1 F1800
G1 X112.918 Y80.373 E.0944
G1 X115.808 Y80.802 E.09928
G1 X118.642 Y81.512 E.0993
G1 X121.393 Y82.497 E.0993
G1 X124.033 Y83.745 E.09927
G1 X126.539 Y85.247 E.09929
G1 X128.886 Y86.988 E.0993
G1 X131.05 Y88.95 E.09928
G1 X133.012 Y91.114 E.09928
G1 X134.753 Y93.461 E.0993
G1 X136.255 Y95.967 E.09929
G1 X137.503 Y98.607 E.09927
G1 X138.488 Y101.358 E.0993
G1 X139.198 Y104.192 E.0993
G1 X139.627 Y107.082 E.09928
G1 X139.77 Y110 E.09931
G1 X139.627 Y112.918 E.09931
G1 X139.198 Y115.808 E.09928
G1 X138.488 Y118.642 E.0993
G1 X137.503 Y121.393 E.0993
G1 X136.255 Y124.033 E.09927
G1 X134.753 Y126.539 E.09929
G1 X133.012 Y128.886 E.0993
G1 X131.05 Y131.05 E.09928
G1 X128.886 Y133.012 E.09928
G1 X126.539 Y134.753 E.0993
G1 X124.033 Y136.255 E.09929
G1 X121.393 Y137.503 E.09927
G1 X118.642 Y138.488 E.0993
G1 X115.808 Y139.198 E.0993
G1 X112.918 Y139.627 E.09928
G1 X110 Y139.77 E.09931
G1 X107.082 Y139.627 E.09931
G1 X104.192 Y139.198 E.09928
G1 X101.358 Y138.488 E.0993
G1 X98.607 Y137.503 E.0993
G1 X95.967 Y136.255 E.09927
G1 X93.461 Y134.753 E.09929
G1 X91.114 Y133.012 E.0993
G1 X88.95 Y131.05 E.09928
G1 X86.988 Y128.886 E.09928
G1 X85.247 Y126.539 E.0993
G1 X83.745 Y124.033 E.09929
G1 X82.497 Y121.393 E.09927
G1 X81.512 Y118.642 E.0993
G1 X80.802 Y115.808 E.0993
G1 X80.373 Y112.918 E.09928
G1 X80.23 Y110 E.09931
G1 X80.373 Y107.082 E.09931
G1 X80.802 Y104.192 E.09928
M73 P2 R18
G1 X81.512 Y101.358 E.0993
G1 X82.497 Y98.607 E.0993
G1 X83.745 Y95.967 E.09927
G1 X85.247 Y93.461 E.09929
G1 X86.988 Y91.114 E.0993
G1 X88.95 Y88.95 E.09928
G1 X91.114 Y86.988 E.09928
G1 X93.461 Y85.247 E.0993
G1 X95.967 Y83.745 E.09929
G1 X98.607 Y82.497 E.09927
G1 X101.358 Y81.512 E.0993
G1 X104.192 Y80.802 E.0993
G1 X107.081 Y80.373 E.09927
G1 X110.1 Y80.235 E.10271
G1 X110.104 Y80.235 E.00014
G1 E-.84
;WIPE_START
G1 X111.103 Y80.284 E-.36
;WIPE_END
G1 Z.6 F9000
G1 X109.798 Y117.375 Z.6
G1 Z.2
G1 E1.2 F1800
;TYPE:Inner wall
G1 X109.902 Y117.358 E.00359
G1 X110.371 Y117.401 E.01598
G1 X112.268 Y117.701 E.0653
G1 X112.836 Y117.956 E.02114
G1 X114.413 Y118.76 E.06016
G1 X114.571 Y118.875 E.00665
G1 X116.125 Y120.429 E.07468
G1 X116.24 Y120.587 E.00665
G1 X117.238 Y122.545 E.07469
G1 X117.299 Y122.732 E.00666
G1 X117.642 Y124.902 E.07469
G1 X117.642 Y125.098 E.00664
G1 X117.299 Y127.268 E.07469
G1 X117.238 Y127.455 E.00666
G1 X116.24 Y129.413 E.0747
G1 X116.125 Y129.571 E.00665
G1 X114.571 Y131.125 E.07468
G1 X114.413 Y131.24 E.00665
G1 X112.455 Y132.238 E.07469
G1 X111.998 Y132.341 E.01593
G1 X110.098 Y132.642 E.06537
G1 X109.902 Y132.642 E.00664
G1 X107.732 Y132.299 E.07469
G1 X107.545 Y132.238 E.00666
G1 X105.587 Y131.24 E.0747
G1 X105.429 Y131.125 E.00665
G1 X103.875 Y129.571 E.07468
G1 X103.76 Y129.413 E.00665
G1 X102.762 Y127.455 E.07469
G1 X102.701 Y127.269 E.00665
G1 X102.357 Y125.098 E.0747
G1 X102.419 Y124.516 E.01988
G1 X102.701 Y122.731 E.06142
G1 X102.762 Y122.545 E.00665
G1 X103.76 Y120.587 E.07469
G1 X103.875 Y120.429 E.00665
G1 X105.432 Y118.872 E.07483
G1 X106.051 Y118.524 E.02414
G1 X107.545 Y117.762 E.057
G1 X107.732 Y117.701 E.00666
G1 X109.759 Y117.381 E.06974
G1 X109.863 Y117.787 F9000
;TYPE:Outer wall
G1 F1800
G1 X110 Y117.765 E.0047
G1 X112.236 Y118.119 E.07694
G1 X114.253 Y119.147 E.07694
G1 X115.853 Y120.747 E.07693
G1 X116.881 Y122.764 E.07694
G1 X117.23 Y125.033 E.078
G1 X116.881 Y127.236 E.07582
G1 X115.853 Y129.253 E.07694
G1 X114.253 Y130.853 E.07693
G1 X112.236 Y131.881 E.07694
G1 X110 Y132.235 E.07694
G1 X107.735 Y131.866 E.07801
G1 X105.747 Y130.853 E.07582
G1 X104.17 Y129.276 E.0758
G1 X103.119 Y127.236 E.07801
G1 X102.764 Y125 E.07694
G1 X103.113 Y122.797 E.07582
G1 X103.401 Y122.211 E.02218
G1 X104.133 Y120.774 E.0548
G1 X105.725 Y119.169 E.07684
G1 X107.735 Y118.134 E.07684
G1 X109.824 Y117.794 E.07194
G1 E-.84
;WIPE_START
G1 X110 Y117.765 E-.06422
G1 X110.812 Y117.893 E-.29578
;WIPE_END
G1 Z.6 F9000
G1 X134.36 Y93.942
G1 Z.6
G1 Z.2
G1 E1.2 F1800
;TYPE:Bottom surface
;WIDTH:0.460144
G1 F4800
G1 X126.876 Y86.458 E.35987
G1 X126.11 Y85.89 E.03243
G1 X125.13 Y85.303 E.03882
G1 X134.697 Y94.87 E.45999
G1 X135.578 Y96.34 E.05828
G1 X123.66 Y84.422 E.57304
G1 X122.541 Y83.893 E.04209
G1 X136.107 Y97.459 E.65229
G1 X136.636 Y98.578 E.04209
G1 X121.422 Y83.364 E.73154
G1 X121.097 Y83.21 E.0122
G1 X120.445 Y82.977 E.02357
G1 X137.023 Y99.555 E.79711
G1 X137.352 Y100.474 E.03318
G1 X119.526 Y82.648 E.8571
G1 X118.607 Y82.319 E.03318
G1 X137.681 Y101.393 E.91709
G1 X137.748 Y101.582 E.00683
G1 X137.905 Y102.208 E.02192
G1 X117.792 Y82.095 E.96704
G1 X117.005 Y81.897 E.0276
G1 X138.103 Y102.995 E1.0144
G1 X138.3 Y103.782 E.0276
G1 X116.218 Y81.7 E1.06175
G1 X115.657 Y81.56 E.01964
G1 X115.457 Y81.53 E.00687
G1 X138.47 Y104.543 E1.10648
G1 X138.573 Y105.235 E.02381
M73 P3 R18
G1 X114.765 Y81.427 E1.14473
G1 X114.072 Y81.324 E.02381
G1 X138.676 Y105.928 E1.18299
G1 X138.778 Y106.621 E.02381
G1 X113.379 Y81.222 E1.22124
G1 X112.702 Y81.135 E.02318
G1 X138.865 Y107.298 E1.25792
G1 X138.895 Y107.918 E.02112
G1 X112.082 Y81.105 E1.28921
G1 X111.462 Y81.074 E.02112
G1 X138.926 Y108.538 E1.3205
G1 X138.956 Y109.159 E.02112
G1 X110.841 Y81.044 E1.35179
G1 X110.221 Y81.014 E.02112
G1 X138.986 Y109.779 E1.38308
G1 X138.997 Y110 E.00751
G1 X138.979 Y110.362 E.01233
G1 X109.645 Y81.028 E1.41041
G1 X109.081 Y81.054 E.0192
G1 X138.952 Y110.925 E1.43622
G1 X138.924 Y111.487 E.01915
G1 X108.517 Y81.08 E1.46202
G1 X107.953 Y81.106 E.0192
G1 X138.897 Y112.05 E1.48783
G1 X138.869 Y112.612 E.01915
G1 X107.388 Y81.132 E1.51363
G1 X107.156 Y81.142 E.00793
G1 X106.854 Y81.187 E.01037
G1 X138.813 Y113.146 E1.53663
G1 X138.737 Y113.66 E.01766
G1 X106.34 Y81.263 E1.55767
G1 X105.826 Y81.339 E.01766
G1 X138.661 Y114.174 E1.57871
G1 X138.584 Y114.688 E.01766
G1 X105.312 Y81.416 E1.59975
G1 X104.799 Y81.492 E.01766
M73 P4 R18
G1 X138.508 Y115.201 E1.62079
G1 X138.427 Y115.71 E.01753
G1 X104.29 Y81.573 E1.64137
G1 X103.818 Y81.691 E.01654
G1 X138.309 Y116.182 E1.65837
G1 X138.191 Y116.654 E.01654
G1 X103.346 Y81.809 E1.67537
G1 X102.874 Y81.928 E.01654
G1 X138.072 Y117.126 E1.69236
G1 X137.954 Y117.598 E.01654
G1 X102.402 Y82.046 E1.70936
G1 X101.931 Y82.164 E.01654
G1 X137.836 Y118.069 E1.72636
G1 X137.708 Y118.531 E.0163
G1 X101.469 Y82.292 E1.74242
G1 X101.034 Y82.448 E.01569
G1 X137.552 Y118.966 E1.75583
G1 X137.397 Y119.4 E.01569
G1 X100.6 Y82.603 E1.76925
G1 X100.165 Y82.759 E.01569
G1 X137.241 Y119.835 E1.78267
G1 X137.086 Y120.27 E.01569
G1 X99.73 Y82.914 E1.79608
G1 X99.296 Y83.07 E.01569
G1 X136.93 Y120.704 E1.8095
G1 X136.772 Y121.135 E.01563
G1 X98.865 Y83.228 E1.82261
G1 X98.464 Y83.418 E.01507
M73 P5 R18
G1 X136.582 Y121.536 E1.83276
G1 X136.393 Y121.937 E.01507
G1 X98.063 Y83.607 E1.84292
G1 X97.663 Y83.797 E.01507
G1 X136.203 Y122.337 E1.85307
G1 X136.014 Y122.738 E.01507
G1 X97.262 Y83.986 E1.86323
G1 X96.861 Y84.176 E.01507
G1 X135.824 Y123.139 E1.87339
G1 X135.635 Y123.539 E.01507
G1 X96.461 Y84.365 E1.88354
G1 X96.082 Y84.576 E.01475
G1 X135.424 Y123.918 E1.89164
G1 X135.203 Y124.287 E.01462
G1 X95.713 Y84.797 E1.89874
G1 X95.344 Y85.018 E.01462
M73 P5 R17
G1 X134.982 Y124.656 E1.90584
G1 X134.761 Y125.025 E.01462
G1 X94.975 Y85.239 E1.91294
G1 X94.606 Y85.46 E.01462
G1 X134.54 Y125.394 E1.92004
G1 X134.318 Y125.763 E.01462
G1 X94.237 Y85.682 E1.92714
G1 X93.87 Y85.905 E.0146
G1 X134.095 Y126.13 E1.93407
G1 X133.844 Y126.469 E.01434
G1 X93.531 Y86.156 E1.93828
G1 X93.193 Y86.407 E.01434
M73 P6 R17
G1 X133.593 Y126.807 E1.94249
G1 X133.342 Y127.146 E.01434
G1 X92.854 Y86.658 E1.9467
G1 X92.515 Y86.91 E.01434
G1 X133.09 Y127.485 E1.95091
G1 X132.839 Y127.824 E.01434
G1 X92.176 Y87.161 E1.95511
G1 X91.837 Y87.412 E.01434
G1 X132.588 Y128.163 E1.95932
G1 X132.327 Y128.492 E.01428
G1 X91.508 Y87.673 E1.96265
G1 X91.198 Y87.953 E.0142
G1 X132.047 Y128.802 E1.96405
G1 X131.766 Y129.111 E.0142
G1 X90.889 Y88.234 E1.96544
G1 X90.579 Y88.514 E.0142
G1 X131.486 Y129.421 E1.96683
G1 X131.205 Y129.73 E.0142
G1 X90.27 Y88.795 E1.96822
G1 X89.96 Y89.075 E.0142
G1 X130.925 Y130.04 E1.96961
G1 X130.644 Y130.349 E.0142
G1 X89.651 Y89.356 E1.97101
G1 X89.356 Y89.651 E.01419
G1 X130.349 Y130.644 E1.97101
M73 P7 R17
G1 X130.04 Y130.925 E.0142
G1 X89.075 Y89.96 E1.96961
G1 X88.795 Y90.27 E.0142
G1 X129.73 Y131.205 E1.96822
G1 X129.421 Y131.486 E.0142
G1 X88.514 Y90.579 E1.96683
G1 X88.234 Y90.889 E.0142
G1 X129.111 Y131.766 E1.96544
G1 X128.802 Y132.047 E.0142
G1 X87.953 Y91.198 E1.96405
G1 X87.673 Y91.508 E.0142
G1 X128.492 Y132.327 E1.96265
G1 X128.163 Y132.588 E.01428
G1 X117.125 Y121.55 E.53069
G1 X117.559 Y122.394 E.03226
G1 X117.646 Y122.661 E.00954
G1 X127.824 Y132.839 E.48937
G1 X127.485 Y133.09 E.01434
G1 X117.757 Y123.363 E.46772
G1 X117.868 Y124.064 E.02412
G1 X127.146 Y133.342 E.4461
G1 X126.807 Y133.593 E.01434
G1 X117.979 Y124.764 E.42449
G1 X118.004 Y125.039 E.00938
G1 X117.958 Y125.334 E.01014
G1 X126.469 Y133.844 E.40919
G1 X126.13 Y134.095 E.01434
G1 X117.879 Y125.844 E.39672
G1 X117.799 Y126.355 E.01757
G1 X125.763 Y134.318 E.38289
G1 X125.394 Y134.54 E.01462
G1 X117.72 Y126.866 E.36897
G1 X117.635 Y127.371 E.01742
G1 X125.025 Y134.761 E.3553
G1 X124.656 Y134.982 E.01462
G1 X117.464 Y127.79 E.34579
G1 X117.264 Y128.18 E.0149
G1 X124.287 Y135.203 E.3377
G1 X123.918 Y135.424 E.01462
G1 X117.063 Y128.569 E.3296
G1 X116.863 Y128.959 E.0149
G1 X123.539 Y135.635 E.32101
G1 X123.139 Y135.825 E.01507
G1 X116.662 Y129.348 E.31139
G1 X116.453 Y129.729 E.01477
G1 X122.738 Y136.014 E.3022
G1 X122.337 Y136.203 E.01507
G1 X116.159 Y130.025 E.29705
G1 X115.866 Y130.322 E.01419
G1 X121.937 Y136.393 E.2919
M73 P8 R17
G1 X121.536 Y136.582 E.01507
G1 X115.572 Y130.618 E.28676
G1 X115.278 Y130.915 E.01419
G1 X121.135 Y136.772 E.28161
G1 X120.704 Y136.93 E.01563
G1 X114.985 Y131.211 E.27499
G1 X114.814 Y131.384 E.00825
G1 X114.671 Y131.487 E.00601
G1 X120.269 Y137.086 E.26918
G1 X119.835 Y137.241 E.01569
G1 X114.292 Y131.698 E.26652
G1 X113.9 Y131.896 E.01493
G1 X119.4 Y137.397 E.26448
G1 X118.966 Y137.552 E.01569
G1 X113.508 Y132.094 E.26244
G1 X113.115 Y132.292 E.01493
G1 X118.531 Y137.708 E.26041
G1 X118.069 Y137.836 E.0163
G1 X112.723 Y132.49 E.25704
G1 X112.479 Y132.613 E.00929
G1 X112.287 Y132.643 E.00662
G1 X117.598 Y137.954 E.25535
G1 X117.126 Y138.072 E.01654
G1 X111.777 Y132.724 E.25715
G1 X111.268 Y132.805 E.01753
G1 X116.654 Y138.191 E.25896
G1 X116.182 Y138.309 E.01654
G1 X110.759 Y132.885 E.26076
G1 X110.249 Y132.966 E.01753
G1 X115.71 Y138.427 E.26257
G1 X115.201 Y138.508 E.01753
G1 X109.642 Y132.949 E.26729
G1 X108.941 Y132.838 E.02414
G1 X114.688 Y138.584 E.2763
G1 X114.174 Y138.661 E.01766
G1 X108.24 Y132.727 E.2853
G1 X107.539 Y132.616 E.02414
G1 X113.825 Y138.902 E.30225
G1 E-.84 F1800
;WIPE_START
G1 F4800
G1 X113.118 Y138.195 E-.36
;WIPE_END
G1 Z.6 F9000
G1 X113.871 Y118.297 Z.6
G1 Z.2
G1 E1.2 F1800
G1 F4800
G1 X87.412 Y91.837 E1.27219
G1 X87.161 Y92.176 E.01434
G1 X112.347 Y117.363 E1.21099
G1 X111.644 Y117.249 E.02424
G1 X86.91 Y92.515 E1.18923
G1 X86.658 Y92.854 E.01434
G1 X110.94 Y117.135 E1.16748
G1 X110.236 Y117.022 E.02424
G1 X86.407 Y93.193 E1.14572
G1 X86.156 Y93.531 E.01434
G1 X109.666 Y117.041 E1.13038
G1 X109.155 Y117.121 E.01757
G1 X85.905 Y93.87 E1.11792
G1 X85.682 Y94.237 E.0146
G1 X108.645 Y117.2 E1.10409
G1 X108.134 Y117.28 E.01757
G1 X85.46 Y94.606 E1.09018
G1 X85.239 Y94.975 E.01462
G1 X107.628 Y117.363 E1.07645
G1 X107.394 Y117.441 E.00838
G1 X107.21 Y117.536 E.00702
G1 X85.018 Y95.344 E1.06702
G1 X84.797 Y95.713 E.01462
M73 P9 R17
G1 X106.821 Y117.737 E1.05894
G1 X106.432 Y117.938 E.01489
G1 X84.576 Y96.082 E1.05087
G1 X84.365 Y96.461 E.01475
G1 X106.043 Y118.139 E1.04229
G1 X105.654 Y118.34 E.01489
G1 X84.175 Y96.861 E1.03269
G1 X83.986 Y97.262 E.01507
G1 X105.269 Y118.545 E1.02332
G1 X104.973 Y118.839 E.01419
G1 X83.797 Y97.663 E1.01819
G1 X83.607 Y98.063 E.01507
G1 X104.677 Y119.133 E1.01306
G1 X104.381 Y119.427 E.01419
G1 X83.418 Y98.464 E1.00793
G1 X83.228 Y98.865 E.01507
G1 X104.085 Y119.721 E1.0028
G1 X103.789 Y120.015 E.01419
G1 X83.07 Y99.296 E.99619
G1 X82.914 Y99.731 E.01569
G1 X103.512 Y120.328 E.99036
G1 X103.454 Y120.407 E.00332
G1 X103.301 Y120.708 E.01147
G1 X82.759 Y100.165 E.98772
G1 X82.603 Y100.6 E.01569
G1 X103.103 Y121.099 E.98565
G1 X102.905 Y121.491 E.01493
G1 X82.448 Y101.034 E.98358
G1 X82.292 Y101.469 E.01569
